public/svgs/light/file-excel.svg

<svg xmlns="http://www.w3.org/2000/svg" viewBox="0 0 384 512"><!-- Font Awesome Pro 6.0.0-alpha2 by @fontawesome - https://fontawesome.com License - https://fontawesome.com/license (Commercial License) --><path d="M365.256 125.254L258.746 18.746C246.744 6.742 230.465 0 213.49 0H64C28.654 0 0 28.654 0 64V448C0 483.346 28.654 512 64 512H320C355.348 512 384 483.346 384 448V170.51C384 153.535 377.258 137.258 365.256 125.254ZM224 34.076C228.477 35.643 232.666 37.922 236.119 41.375L342.627 147.879C346.08 151.332 348.357 155.523 349.924 160H240C231.188 160 224 152.828 224 144V34.076ZM352 448C352 465.645 337.645 480 320 480H64C46.355 480 32 465.645 32 448V64C32 46.355 46.355 32 64 32H192V144C192 170.469 213.531 192 240 192H352V448ZM192 308.1L149.109 246.828C144.047 239.578 134.047 237.828 126.828 242.891C119.578 247.953 117.828 257.937 122.891 265.172L172.471 336L122.891 406.828C117.828 414.062 119.578 424.047 126.828 429.109C129.625 431.062 132.812 432 135.984 432C141.031 432 146 429.625 149.109 425.172L192 363.9L234.891 425.172C238 429.625 242.969 432 248.016 432C251.188 432 254.391 431.062 257.172 429.109C264.422 424.047 266.172 414.063 261.109 406.828L211.529 336L261.109 265.172C266.172 257.938 264.422 247.953 257.172 242.891S239.953 239.578 234.891 246.828L192 308.1Z"/></svg>

<svg xmlns="http://www.w3.org/2000/svg" viewBox="0 0 384 512"><!--! Font Awesome Pro 6.5.1 by @fontawesome - https://fontawesome.com License - https://fontawesome.com/license (Commercial License) Copyright 2023 Fonticons, Inc. --><path d="M320 480H64c-17.7 0-32-14.3-32-32V64c0-17.7 14.3-32 32-32H192V144c0 26.5 21.5 48 48 48H352V448c0 17.7-14.3 32-32 32zM240 160c-8.8 0-16-7.2-16-16V32.5c2.8 .7 5.4 2.1 7.4 4.2L347.3 152.6c2.1 2.1 3.5 4.6 4.2 7.4H240zM64 0C28.7 0 0 28.7 0 64V448c0 35.3 28.7 64 64 64H320c35.3 0 64-28.7 64-64V163.9c0-12.7-5.1-24.9-14.1-33.9L254.1 14.1c-9-9-21.2-14.1-33.9-14.1H64zm85.1 246.8c-5.1-7.2-15-9-22.3-3.9s-9 15-3.9 22.3L172.5 336l-49.6 70.8c-5.1 7.2-3.3 17.2 3.9 22.3s17.2 3.3 22.3-3.9L192 363.9l42.9 61.3c5.1 7.2 15 9 22.3 3.9s9-15 3.9-22.3L211.5 336l49.6-70.8c5.1-7.2 3.3-17.2-3.9-22.3s-17.2-3.3-22.3 3.9L192 308.1l-42.9-61.3z"/></svg>
